X: 462
T: My Bold Trainor O
N:"With feeling" "collected by F.O'Neill"
N:Irish title: mo .trainor .treun.mar o
B:O'Neill's 462
Z:Transcribed by henrik.norbeck@mailbox.swipnet.se
M:6/8
L:1/8
K:D
DEF | (G2 A) (~c2 B) | (A F2) (~E2 D) | D2 F A2 B | (~c B2) z2 A |
d2 F (G A2) | TF3 (D2 F) | E3 D2 D | D3 Hx ||
FGA | B2 B (~c2 B) | (B A2) A2 F | ABc d2 e | d3- d2 A |
(B2 A) (~d2 B) | (A F2) (D2 E) | D3 D2 E | D3 "D.C." ||


